X: 5691
T: C
R: polka
M: 2/4
K: Cmajor
Bars 3 & 4 (A music) should read;|FD/F/ EC|D/E/D/C/ B,/A,/G,|
Bars 7 & 8 (A music) should read;|FD/F/ EC|DB, C2:|
Bars 1
& 11 (B music) should read;|ED/C/ B,>C|D/C/D/E/ F/E/D/C/|
Bars 14 & 15 (B music) should read;|ED/C/ B,>C|DD/E/ F/E/D/C/|

